X:4
T:Crown Point
C:Roy Watrous, 1952
S:The Watrous Book, 1992
M:2/4
L:1/16
Q:1/4=90
K:D
%%MIDI program 72
%%MIDI transpose 8
%%MIDI ratio 3 1
A2|d2d2 f2a2|gfed c2A2|d2de f2f2|edcB A2A2|d2f2 TA2e2|
g2TA2 f2a2|gfed cABc|d2f2d2::z2|c2cd e2A2|e2ef g2A2|
fa2f d2f2|edcB A2A2|d2f2 TA2e2|g2TA2 f2a2|gfed cABc|d2f2d2:|]

